X:807
T:Xiraldilla (CT 229)
R:Xiraldilla
C:Tradicional
S:Msica Tradicional Asturiana, (C) Tello & Tito. Asturies, 2001.
S:http://pagina.de/MusTradAst <telloytito@asturies.org>
N:Xiraldilla, transcrita en Uviu.
A:Asturies
O:Uviu
Z:Cancioneru de Torner 229
M:2/4
L:1/8
Q:1/4=138
K:G
B/2c/2|dd cc|dd- dB/2c/2|
dd cc|dd- dB/2B/2|
|:cc AA|BB GG|AA FF|[1 GG- GB/2B/2:|[2 GG- G||
W:Una vez que fui contigo
W:a San Pedro Los Pilares,
W:
W:dsteme les calabaces
W:y esto s que son pesares. (bis)
W:
